X:1
T:Only Believe
T:Only Believe
T:William James Kirkpatrick
T:Emma Mansfield Johnston, 1889
T:Public Domain Courtesy of the Cyber Hymnal™
T:Public Domain Courtesy of the Cyber Hymnal™
C:William James Kirkpatrick
Z:Public Domain
Z:Courtesy of the Cyber Hymnal™
%%score ( 1 2 ) ( 3 4 )
L:1/8
Q:1/4=125
M:6/4
K:A
V:1 treble 
V:2 treble 
V:3 bass 
V:4 bass 
V:1
 [CE]2 | [Ec]3 [DB] [CA]2 [Ec]3 [DB] [CA]2 | [EB]6- [EB]4 E2 | %3
w: 1.~Oh,|why should we wres- tle with|fears * And|
w: 2.~His|word is as- sur- ance com-|plete; * Thy|
w: 3.~How|ea- sy the terms of His|grace: * ’Tis|
 [DB]3 [DB] [DB]2 [DB]2 [CA]2 [B,G]2 | [CA]6- [CA]4 [CE]2 | [Ec]3 [DB] [CA]2 [Ec]3 [DB] [CA]2 | %6
w: doubts which the Spir- it must|grieve? * And|why should we lan- guish in|
w: sins and thine i- dols now|leave; * Come,|plead- ing His prom- ise, and|
w: on- ly to ask and re-|ceive; * The|seal of His fa- vor, the|
 [DB]3 [DA] [DF]2 [DB]4 [FA]>[DF] | [CE] [CE]3 [CA]2 [B,G]2 [CA]2 [DB]2 | [CA]6- [CA]4 || %9
w: sor- row and tears, When there’s|no- thing to do but be-|lieve. *|
w: fall at His feet, Then you’ve|no- thing to do but be-|lieve. *|
w: smile of His face, Are for|those who will on- ly be-|lieve. *|
"^Refrain" E2 | [EB]6- [EB]4 E2 | [Ec]6- [Ec]4 z2 | [Fd]3 [Fd] [Fd]2 [Fd]2 [Fe]2 [Fd]2 | %13
w: ||||
w: Be-|lieve, * be-|lieve, *|On- ly on Je- sus be-|
w: ||||
 [Ec]6- [Ec]4 (cd) | [Ee]3 [Ed] [Ec]2 [Ac]3 [EB] [EA]2 | %15
w: ||
w: lieve; * Sal- *|va- tion is wait- ing for|
w: ||
 [FB]3 [FA] [DF]2 !fermata![FB]4 [FA]>[DF] | [CE]2 [CE]2 [EA]2 [EG]2 [EA]2 [EB]2 | [EA]6- [EA]4 |] %18
w: |||
w: you and for me, There is|no- thing to do but be-|lieve. *|
w: |||
V:2
 x2 | x12 | x10 E2 | x12 | x12 | x12 | x12 | x12 | x10 || E2 | x10 E2 | x12 | x12 | x10 E2 | x12 | %15
 x12 | x12 | x10 |] %18
V:3
 [A,,A,]2 | [A,,A,]3 [A,,A,] [A,,A,]2 [A,,A,]3 [A,,A,] [A,,A,]2 | [E,G,]6- [E,G,]4 E,2 | %3
w: ~|~ ~ ~ ~ ~ ~|~ * ~|
 [E,G,]3 [E,G,] [E,G,]2 [E,G,]2 E,2 E,2 | [A,,E,]6- [A,,E,]4 [A,,A,]2 | A,3 A, A,2 A,3 A, A,2 | %6
w: ~ ~ ~ ~ ~ ~|~ * ~|~ ~ ~ ~ ~ ~|
 [D,F,]3 [D,F,] [D,F,]2 [D,F,]4 [D,A,]>[D,A,] | [E,A,] [E,A,]3 [E,A,]2 E,2 E,2 E,2 | %8
w: ~ ~ ~ ~ ~ ~|~ ~ ~ ~ ~ ~|
 [A,,E,]6- [A,,E,]4 || E,2 | [E,G,]4 [E,G,]2 [E,G,]4 [E,G,]2 | [A,,A,]4 A,2 A,4 z2 | %12
w: ~ *|Be-|lieve, be- lieve, ~|~ be- lieve,|
 [D,A,]3 [D,A,] [D,A,]2 [D,A,]2 [D,A,]2 [D,A,]2 | A,6- A,4 (A,B,) | %14
w: ||
 [A,C]3 [A,B,] A,2 [A,E]3 [A,D] [A,C]2 | [D,D]3 [D,D] [D,A,]2 [D,D]4 [D,A,]>[D,A,] | %16
w: ||
 [E,A,]2 [E,A,]2 [E,C]2 [E,B,]2 [E,C]2 [E,D]2 | [A,,A,C]6- [A,,A,C]4 |] %18
w: ||
V:4
 x2 | x12 | x10 E,2 | x8 E,2 E,2 | x12 | A,3 A, A,2 A,3 A, A,2 | x12 | x6 E,2 E,2 E,2 | x10 || %9
 E,2 | x12 | x4 A,2 A,4 x2 | x12 | A,6- A,4 A,2 | x4 A,2 x6 | x12 | x12 | x10 |] %18

